X: 1
T: Scarce O' Tatties
T: Cion a'Bhunta'ta
N: jig-time variant of the old tune "The Banks of the Devon"
C: Norman MacLean
S: arr. T. Traub 4-27-2003
M: 6/8
R: jig march
K: Ador
L: 1/8
   e | "Am"Aee    efg | "Am"edB  "G"dBG | "Am"Aee efg | "Em"edB "Am"A3 \
     | "Am"aaa "C"gag |  "D"fgf "Am"eAA | "Am"Aee efg | "Em"edB "Am"A2 :|
|: g | "Am"aeg    a3  |  "G"g2f "Am"eAA | "Am"aeg a2e |  "D"gaf "Em"e3 \
     | "Am"eee    AAA |  "D"dff "Am"fee | "Am"Aee efg | "Em"edB "Am"A2 :|
